X: 11081
T: A Rock and a wi Pickle Tow
%R: air, waltz, minuet
B: James Oswald "The Caledonian Pocket Companion" v.1 b.1 p.8
Z: 2020 John Chambers <jc:trillian.mit.edu>
M: 3/4
L: 1/8
K: G
"_Slow"D2 |\
(E2G2)A2 | TB4d2 | (ef)g2B2 | A2(ba)(gf) |\
g2G2A2 | TB3A (B/c/d) | TB2(AG)(GA) | G4 :: (gf) |\
e2e2g2 | e2e2g2 |
(ed)(ef)(gf) | Te3dB2 |\
d3ed2 | (d2e2)f2 | g2(fe)(dc) | TB2ABG2 |\
(c2B2)c2 | d2e2f2 | (gf)(ed)(cB) | A4 (gf) |
g2G2A2 | B3A (B/c/d) | TB2(AG)(GA) | A4 :: D2 |\
G4A2 | (B2c2)d2 | (ef)g2B2 | {B}A4g2 |\
G4g2 | e2ABcd |
TB2(AG)(GA) | G4 :: (gf) |\
e4(gf) | e4(gf) | (edBd)gf | Te3dc2 |\
d3GBd | g3GBd | g2(fe)(dc) | TB3AG2 |
c2a3c | Bdg3D | (GBd)gGB | {B}A4gf |\
g3GFA | D3cBA | TB2AGGA | G4 :: x[M:6/8] "_Gig"D |\
G2A B2g | edB TA2G |
(EG)A TB2A | (BG)G G2 :: g |\
eeg eeg | deg Te2B | ddg ddg | (Bd)g TB2G |\
(ca)c (Bg)B | (Aa)g (fe)f | (gd)c TB2A | (BG)G G2 :|


